%
(Header)
(Generated by gcodetools from Inkscape.)
(Using default header. To add your own header create file "header" in the output dir.)
M3
(Header end.)
G21 (All units in mm)

(Start cutting path id: path272)
(Change tool to Default tool)

G00 Z5.000000
G00 X727.850010 Y447.404990

G01 Z-0.125000 F100.0(Penetrate)
G01 X727.850010 Y394.012000 Z-0.125000 F400.000000
G01 X816.750010 Y394.012000 Z-0.125000
G01 X816.750010 Y447.404990 Z-0.125000
G01 X727.850010 Y447.404990 Z-0.125000
G00 Z5.000000

(End cutting path id: path272)


(Start cutting path id: path272)
(Change tool to Default tool)

G00 Z5.000000
G00 X727.850010 Y447.404990

G01 Z-0.125000 F100.0(Penetrate)
G01 X727.850010 Y394.012000 Z-0.125000 F400.000000
G01 X816.750010 Y394.012000 Z-0.125000
G01 X816.750010 Y447.404990 Z-0.125000
G01 X727.850010 Y447.404990 Z-0.125000
G00 Z5.000000

(End cutting path id: path272)


(Start cutting path id: path220)
(Change tool to Default tool)

G00 Z5.000000
G00 X727.850000 Y447.405000

G01 Z-0.125000 F100.0(Penetrate)
G01 X727.850000 Y394.012000 Z-0.125000 F400.000000
G00 Z5.000000

(End cutting path id: path220)


(Start cutting path id: path220)
(Change tool to Default tool)

G00 Z5.000000
G00 X727.850000 Y447.405000

G01 Z-0.125000 F100.0(Penetrate)
G01 X727.850000 Y394.012000 Z-0.125000 F400.000000
G00 Z5.000000

(End cutting path id: path220)


(Start cutting path id: path248)
(Change tool to Default tool)

G00 Z5.000000
G00 X702.450000 Y394.012000

G01 Z-0.125000 F100.0(Penetrate)
G01 X613.550000 Y394.012000 Z-0.125000 F400.000000
G00 Z5.000000

(End cutting path id: path248)


(Start cutting path id: path248)
(Change tool to Default tool)

G00 Z5.000000
G00 X702.450000 Y394.012000

G01 Z-0.125000 F100.0(Penetrate)
G01 X613.550000 Y394.012000 Z-0.125000 F400.000000
G00 Z5.000000

(End cutting path id: path248)


(Start cutting path id: path246)
(Change tool to Default tool)

G00 Z5.000000
G00 X613.550000 Y394.012000

G01 Z-0.125000 F100.0(Penetrate)
G01 X613.550000 Y447.405000 Z-0.125000 F400.000000
G00 Z5.000000

(End cutting path id: path246)


(Start cutting path id: path246)
(Change tool to Default tool)

G00 Z5.000000
G00 X613.550000 Y394.012000

G01 Z-0.125000 F100.0(Penetrate)
G01 X613.550000 Y447.405000 Z-0.125000 F400.000000
G00 Z5.000000

(End cutting path id: path246)


(Start cutting path id: path244)
(Change tool to Default tool)

G00 Z5.000000
G00 X613.550000 Y447.405000

G01 Z-0.125000 F100.0(Penetrate)
G01 X702.450000 Y447.405000 Z-0.125000 F400.000000
G00 Z5.000000

(End cutting path id: path244)


(Start cutting path id: path244)
(Change tool to Default tool)

G00 Z5.000000
G00 X613.550000 Y447.405000

G01 Z-0.125000 F100.0(Penetrate)
G01 X702.450000 Y447.405000 Z-0.125000 F400.000000
G00 Z5.000000

(End cutting path id: path244)


(Start cutting path id: path242)
(Change tool to Default tool)

G00 Z5.000000
G00 X702.450000 Y447.405000

G01 Z-0.125000 F100.0(Penetrate)
G01 X702.450000 Y394.012000 Z-0.125000 F400.000000
G00 Z5.000000

(End cutting path id: path242)


(Start cutting path id: path242)
(Change tool to Default tool)

G00 Z5.000000
G00 X702.450000 Y447.405000

G01 Z-0.125000 F100.0(Penetrate)
G01 X702.450000 Y394.012000 Z-0.125000 F400.000000
G00 Z5.000000

(End cutting path id: path242)


(Start cutting path id: path218)
(Change tool to Default tool)

G00 Z5.000000
G00 X727.850000 Y447.405000

G01 Z-0.125000 F100.0(Penetrate)
G01 X816.750000 Y447.405000 Z-0.125000 F400.000000
G00 Z5.000000

(End cutting path id: path218)


(Start cutting path id: path218)
(Change tool to Default tool)

G00 Z5.000000
G00 X727.850000 Y447.405000

G01 Z-0.125000 F100.0(Penetrate)
G01 X816.750000 Y447.405000 Z-0.125000 F400.000000
G00 Z5.000000

(End cutting path id: path218)


(Start cutting path id: path212)
(Change tool to Default tool)

G00 Z5.000000
G00 X842.150000 Y447.405000

G01 Z-0.125000 F100.0(Penetrate)
G01 X842.150000 Y394.012000 Z-0.125000 F400.000000
G00 Z5.000000

(End cutting path id: path212)


(Start cutting path id: path212)
(Change tool to Default tool)

G00 Z5.000000
G00 X842.150000 Y447.405000

G01 Z-0.125000 F100.0(Penetrate)
G01 X842.150000 Y394.012000 Z-0.125000 F400.000000
G00 Z5.000000

(End cutting path id: path212)


(Start cutting path id: path224)
(Change tool to Default tool)

G00 Z5.000000
G00 X816.750000 Y394.012000

G01 Z-0.125000 F100.0(Penetrate)
G01 X816.750000 Y447.405000 Z-0.125000 F400.000000
G00 Z5.000000

(End cutting path id: path224)


(Start cutting path id: path224)
(Change tool to Default tool)

G00 Z5.000000
G00 X816.750000 Y394.012000

G01 Z-0.125000 F100.0(Penetrate)
G01 X816.750000 Y447.405000 Z-0.125000 F400.000000
G00 Z5.000000

(End cutting path id: path224)


(Start cutting path id: path210)
(Change tool to Default tool)

G00 Z5.000000
G00 X842.150000 Y447.405000

G01 Z-0.125000 F100.0(Penetrate)
G01 X943.750000 Y447.405000 Z-0.125000 F400.000000
G00 Z5.000000

(End cutting path id: path210)


(Start cutting path id: path210)
(Change tool to Default tool)

G00 Z5.000000
G00 X842.150000 Y447.405000

G01 Z-0.125000 F100.0(Penetrate)
G01 X943.750000 Y447.405000 Z-0.125000 F400.000000
G00 Z5.000000

(End cutting path id: path210)


(Start cutting path id: path198)
(Change tool to Default tool)

G00 Z5.000000
G00 X969.150000 Y468.612000

G01 Z-0.125000 F100.0(Penetrate)
G01 X969.150000 Y368.591000 Z-0.125000 F400.000000
G00 Z5.000000

(End cutting path id: path198)


(Start cutting path id: path198)
(Change tool to Default tool)

G00 Z5.000000
G00 X969.150000 Y468.612000

G01 Z-0.125000 F100.0(Penetrate)
G01 X969.150000 Y368.591000 Z-0.125000 F400.000000
G00 Z5.000000

(End cutting path id: path198)


(Start cutting path id: path250)
(Change tool to Default tool)

G00 Z5.000000
G00 X969.150000 Y368.591000

G01 Z-0.125000 F100.0(Penetrate)
G01 X219.850000 Y368.591000 Z-0.125000 F400.000000
G00 Z5.000000

(End cutting path id: path250)


(Start cutting path id: path250)
(Change tool to Default tool)

G00 Z5.000000
G00 X969.150000 Y368.591000

G01 Z-0.125000 F100.0(Penetrate)
G01 X219.850000 Y368.591000 Z-0.125000 F400.000000
G00 Z5.000000

(End cutting path id: path250)


(Start cutting path id: path264)
(Change tool to Default tool)

G00 Z5.000000
G00 X245.250000 Y447.404990

G01 Z-0.125000 F100.0(Penetrate)
G01 X245.250000 Y394.012000 Z-0.125000 F400.000000
G01 X346.850010 Y394.012000 Z-0.125000
G01 X346.850010 Y447.404990 Z-0.125000
G01 X245.250000 Y447.404990 Z-0.125000
G00 Z5.000000

(End cutting path id: path264)


(Start cutting path id: path264)
(Change tool to Default tool)

G00 Z5.000000
G00 X245.250000 Y447.404990

G01 Z-0.125000 F100.0(Penetrate)
G01 X245.250000 Y394.012000 Z-0.125000 F400.000000
G01 X346.850010 Y394.012000 Z-0.125000
G01 X346.850010 Y447.404990 Z-0.125000
G01 X245.250000 Y447.404990 Z-0.125000
G00 Z5.000000

(End cutting path id: path264)


(Start cutting path id: path204)
(Change tool to Default tool)

G00 Z5.000000
G00 X245.250000 Y447.405000

G01 Z-0.125000 F100.0(Penetrate)
G01 X245.250000 Y394.012000 Z-0.125000 F400.000000
G00 Z5.000000

(End cutting path id: path204)


(Start cutting path id: path204)
(Change tool to Default tool)

G00 Z5.000000
G00 X245.250000 Y447.405000

G01 Z-0.125000 F100.0(Penetrate)
G01 X245.250000 Y394.012000 Z-0.125000 F400.000000
G00 Z5.000000

(End cutting path id: path204)


(Start cutting path id: path202)
(Change tool to Default tool)

G00 Z5.000000
G00 X245.250000 Y447.405000

G01 Z-0.125000 F100.0(Penetrate)
G01 X346.850000 Y447.405000 Z-0.125000 F400.000000
G00 Z5.000000

(End cutting path id: path202)


(Start cutting path id: path202)
(Change tool to Default tool)

G00 Z5.000000
G00 X245.250000 Y447.405000

G01 Z-0.125000 F100.0(Penetrate)
G01 X346.850000 Y447.405000 Z-0.125000 F400.000000
G00 Z5.000000

(End cutting path id: path202)


(Start cutting path id: path228)
(Change tool to Default tool)

G00 Z5.000000
G00 X372.250000 Y447.405000

G01 Z-0.125000 F100.0(Penetrate)
G01 X372.250000 Y394.012000 Z-0.125000 F400.000000
G00 Z5.000000

(End cutting path id: path228)


(Start cutting path id: path228)
(Change tool to Default tool)

G00 Z5.000000
G00 X372.250000 Y447.405000

G01 Z-0.125000 F100.0(Penetrate)
G01 X372.250000 Y394.012000 Z-0.125000 F400.000000
G00 Z5.000000

(End cutting path id: path228)


(Start cutting path id: path208)
(Change tool to Default tool)

G00 Z5.000000
G00 X346.850000 Y394.012000

G01 Z-0.125000 F100.0(Penetrate)
G01 X346.850000 Y447.405000 Z-0.125000 F400.000000
G00 Z5.000000

(End cutting path id: path208)


(Start cutting path id: path208)
(Change tool to Default tool)

G00 Z5.000000
G00 X346.850000 Y394.012000

G01 Z-0.125000 F100.0(Penetrate)
G01 X346.850000 Y447.405000 Z-0.125000 F400.000000
G00 Z5.000000

(End cutting path id: path208)


(Start cutting path id: path226)
(Change tool to Default tool)

G00 Z5.000000
G00 X372.250000 Y447.405000

G01 Z-0.125000 F100.0(Penetrate)
G01 X461.150000 Y447.405000 Z-0.125000 F400.000000
G00 Z5.000000

(End cutting path id: path226)


(Start cutting path id: path226)
(Change tool to Default tool)

G00 Z5.000000
G00 X372.250000 Y447.405000

G01 Z-0.125000 F100.0(Penetrate)
G01 X461.150000 Y447.405000 Z-0.125000 F400.000000
G00 Z5.000000

(End cutting path id: path226)


(Start cutting path id: path236)
(Change tool to Default tool)

G00 Z5.000000
G00 X486.550000 Y447.405000

G01 Z-0.125000 F100.0(Penetrate)
G01 X486.550000 Y394.012000 Z-0.125000 F400.000000
G00 Z5.000000

(End cutting path id: path236)


(Start cutting path id: path236)
(Change tool to Default tool)

G00 Z5.000000
G00 X486.550000 Y447.405000

G01 Z-0.125000 F100.0(Penetrate)
G01 X486.550000 Y394.012000 Z-0.125000 F400.000000
G00 Z5.000000

(End cutting path id: path236)


(Start cutting path id: path232)
(Change tool to Default tool)

G00 Z5.000000
G00 X461.150000 Y394.012000

G01 Z-0.125000 F100.0(Penetrate)
G01 X461.150000 Y447.405000 Z-0.125000 F400.000000
G00 Z5.000000

(End cutting path id: path232)


(Start cutting path id: path232)
(Change tool to Default tool)

G00 Z5.000000
G00 X461.150000 Y394.012000

G01 Z-0.125000 F100.0(Penetrate)
G01 X461.150000 Y447.405000 Z-0.125000 F400.000000
G00 Z5.000000

(End cutting path id: path232)


(Start cutting path id: path234)
(Change tool to Default tool)

G00 Z5.000000
G00 X486.550000 Y447.405000

G01 Z-0.125000 F100.0(Penetrate)
G01 X575.450000 Y447.405000 Z-0.125000 F400.000000
G00 Z5.000000

(End cutting path id: path234)


(Start cutting path id: path234)
(Change tool to Default tool)

G00 Z5.000000
G00 X486.550000 Y447.405000

G01 Z-0.125000 F100.0(Penetrate)
G01 X575.450000 Y447.405000 Z-0.125000 F400.000000
G00 Z5.000000

(End cutting path id: path234)


(Start cutting path id: path270)
(Change tool to Default tool)

G00 Z5.000000
G00 X613.550010 Y447.404990

G01 Z-0.125000 F100.0(Penetrate)
G01 X613.550010 Y394.012000 Z-0.125000 F400.000000
G01 X702.450010 Y394.012000 Z-0.125000
G01 X702.450010 Y447.404990 Z-0.125000
G01 X613.550010 Y447.404990 Z-0.125000
G00 Z5.000000

(End cutting path id: path270)


(Start cutting path id: path270)
(Change tool to Default tool)

G00 Z5.000000
G00 X613.550010 Y447.404990

G01 Z-0.125000 F100.0(Penetrate)
G01 X613.550010 Y394.012000 Z-0.125000 F400.000000
G01 X702.450010 Y394.012000 Z-0.125000
G01 X702.450010 Y447.404990 Z-0.125000
G01 X613.550010 Y447.404990 Z-0.125000
G00 Z5.000000

(End cutting path id: path270)


(Start cutting path id: path240)
(Change tool to Default tool)

G00 Z5.000000
G00 X575.450000 Y394.012000

G01 Z-0.125000 F100.0(Penetrate)
G01 X575.450000 Y447.405000 Z-0.125000 F400.000000
G00 Z5.000000

(End cutting path id: path240)


(Start cutting path id: path240)
(Change tool to Default tool)

G00 Z5.000000
G00 X575.450000 Y394.012000

G01 Z-0.125000 F100.0(Penetrate)
G01 X575.450000 Y447.405000 Z-0.125000 F400.000000
G00 Z5.000000

(End cutting path id: path240)


(Start cutting path id: path238)
(Change tool to Default tool)

G00 Z5.000000
G00 X575.450000 Y394.012000

G01 Z-0.125000 F100.0(Penetrate)
G01 X486.550000 Y394.012000 Z-0.125000 F400.000000
G00 Z5.000000

(End cutting path id: path238)


(Start cutting path id: path238)
(Change tool to Default tool)

G00 Z5.000000
G00 X575.450000 Y394.012000

G01 Z-0.125000 F100.0(Penetrate)
G01 X486.550000 Y394.012000 Z-0.125000 F400.000000
G00 Z5.000000

(End cutting path id: path238)


(Start cutting path id: path230)
(Change tool to Default tool)

G00 Z5.000000
G00 X461.150000 Y394.012000

G01 Z-0.125000 F100.0(Penetrate)
G01 X372.250000 Y394.012000 Z-0.125000 F400.000000
G00 Z5.000000

(End cutting path id: path230)


(Start cutting path id: path230)
(Change tool to Default tool)

G00 Z5.000000
G00 X461.150000 Y394.012000

G01 Z-0.125000 F100.0(Penetrate)
G01 X372.250000 Y394.012000 Z-0.125000 F400.000000
G00 Z5.000000

(End cutting path id: path230)


(Start cutting path id: path206)
(Change tool to Default tool)

G00 Z5.000000
G00 X346.850000 Y394.012000

G01 Z-0.125000 F100.0(Penetrate)
G01 X245.250000 Y394.012000 Z-0.125000 F400.000000
G00 Z5.000000

(End cutting path id: path206)


(Start cutting path id: path206)
(Change tool to Default tool)

G00 Z5.000000
G00 X346.850000 Y394.012000

G01 Z-0.125000 F100.0(Penetrate)
G01 X245.250000 Y394.012000 Z-0.125000 F400.000000
G00 Z5.000000

(End cutting path id: path206)


(Start cutting path id: path200)
(Change tool to Default tool)

G00 Z5.000000
G00 X219.850000 Y468.612000

G01 Z-0.125000 F100.0(Penetrate)
G01 X219.850000 Y368.591000 Z-0.125000 F400.000000
G00 Z5.000000

(End cutting path id: path200)


(Start cutting path id: path200)
(Change tool to Default tool)

G00 Z5.000000
G00 X219.850000 Y468.612000

G01 Z-0.125000 F100.0(Penetrate)
G01 X219.850000 Y368.591000 Z-0.125000 F400.000000
G00 Z5.000000

(End cutting path id: path200)


(Start cutting path id: path196)
(Change tool to Default tool)

G00 Z5.000000
G00 X219.850000 Y468.612000

G01 Z-0.125000 F100.0(Penetrate)
G01 X219.850000 Y472.767000 Z-0.125000 F400.000000
G00 Z5.000000

(End cutting path id: path196)


(Start cutting path id: path196)
(Change tool to Default tool)

G00 Z5.000000
G00 X219.850000 Y468.612000

G01 Z-0.125000 F100.0(Penetrate)
G01 X219.850000 Y472.767000 Z-0.125000 F400.000000
G00 Z5.000000

(End cutting path id: path196)


(Start cutting path id: path262)
(Change tool to Default tool)

G00 Z5.000000
G00 X219.850000 Y472.767000

G01 Z-0.125000 F100.0(Penetrate)
G01 X219.850000 Y368.590990 Z-0.125000 F400.000000
G01 X969.150010 Y368.590990 Z-0.125000
G01 X969.150010 Y472.767000 Z-0.125000
G01 X219.850000 Y472.767000 Z-0.125000
G00 Z5.000000

(End cutting path id: path262)


(Start cutting path id: path262)
(Change tool to Default tool)

G00 Z5.000000
G00 X219.850000 Y472.767000

G01 Z-0.125000 F100.0(Penetrate)
G01 X219.850000 Y368.590990 Z-0.125000 F400.000000
G01 X969.150010 Y368.590990 Z-0.125000
G01 X969.150010 Y472.767000 Z-0.125000
G01 X219.850000 Y472.767000 Z-0.125000
G00 Z5.000000

(End cutting path id: path262)


(Start cutting path id: path266)
(Change tool to Default tool)

G00 Z5.000000
G00 X372.250010 Y447.404990

G01 Z-0.125000 F100.0(Penetrate)
G01 X372.250010 Y394.012000 Z-0.125000 F400.000000
G01 X461.150010 Y394.012000 Z-0.125000
G01 X461.150010 Y447.404990 Z-0.125000
G01 X372.250010 Y447.404990 Z-0.125000
G00 Z5.000000

(End cutting path id: path266)


(Start cutting path id: path266)
(Change tool to Default tool)

G00 Z5.000000
G00 X372.250010 Y447.404990

G01 Z-0.125000 F100.0(Penetrate)
G01 X372.250010 Y394.012000 Z-0.125000 F400.000000
G01 X461.150010 Y394.012000 Z-0.125000
G01 X461.150010 Y447.404990 Z-0.125000
G01 X372.250010 Y447.404990 Z-0.125000
G00 Z5.000000

(End cutting path id: path266)


(Start cutting path id: path268)
(Change tool to Default tool)

G00 Z5.000000
G00 X486.550010 Y447.404990

G01 Z-0.125000 F100.0(Penetrate)
G01 X486.550010 Y394.012000 Z-0.125000 F400.000000
G01 X575.450010 Y394.012000 Z-0.125000
G01 X575.450010 Y447.404990 Z-0.125000
G01 X486.550010 Y447.404990 Z-0.125000
G00 Z5.000000

(End cutting path id: path268)


(Start cutting path id: path268)
(Change tool to Default tool)

G00 Z5.000000
G00 X486.550010 Y447.404990

G01 Z-0.125000 F100.0(Penetrate)
G01 X486.550010 Y394.012000 Z-0.125000 F400.000000
G01 X575.450010 Y394.012000 Z-0.125000
G01 X575.450010 Y447.404990 Z-0.125000
G01 X486.550010 Y447.404990 Z-0.125000
G00 Z5.000000

(End cutting path id: path268)


(Start cutting path id: path222)
(Change tool to Default tool)

G00 Z5.000000
G00 X816.750000 Y394.012000

G01 Z-0.125000 F100.0(Penetrate)
G01 X727.850000 Y394.012000 Z-0.125000 F400.000000
G00 Z5.000000

(End cutting path id: path222)


(Start cutting path id: path222)
(Change tool to Default tool)

G00 Z5.000000
G00 X816.750000 Y394.012000

G01 Z-0.125000 F100.0(Penetrate)
G01 X727.850000 Y394.012000 Z-0.125000 F400.000000
G00 Z5.000000

(End cutting path id: path222)


(Start cutting path id: path216)
(Change tool to Default tool)

G00 Z5.000000
G00 X943.750000 Y394.012000

G01 Z-0.125000 F100.0(Penetrate)
G01 X943.750000 Y447.405000 Z-0.125000 F400.000000
G00 Z5.000000

(End cutting path id: path216)


(Start cutting path id: path216)
(Change tool to Default tool)

G00 Z5.000000
G00 X943.750000 Y394.012000

G01 Z-0.125000 F100.0(Penetrate)
G01 X943.750000 Y447.405000 Z-0.125000 F400.000000
G00 Z5.000000

(End cutting path id: path216)


(Start cutting path id: path194)
(Change tool to Default tool)

G00 Z5.000000
G00 X969.150000 Y468.612000

G01 Z-0.125000 F100.0(Penetrate)
G01 X969.150000 Y472.767000 Z-0.125000 F400.000000
G00 Z5.000000

(End cutting path id: path194)


(Start cutting path id: path194)
(Change tool to Default tool)

G00 Z5.000000
G00 X969.150000 Y468.612000

G01 Z-0.125000 F100.0(Penetrate)
G01 X969.150000 Y472.767000 Z-0.125000 F400.000000
G00 Z5.000000

(End cutting path id: path194)


(Start cutting path id: path192)
(Change tool to Default tool)

G00 Z5.000000
G00 X969.150000 Y472.767000

G01 Z-0.125000 F100.0(Penetrate)
G01 X219.850000 Y472.767000 Z-0.125000 F400.000000
G00 Z5.000000

(End cutting path id: path192)


(Start cutting path id: path192)
(Change tool to Default tool)

G00 Z5.000000
G00 X969.150000 Y472.767000

G01 Z-0.125000 F100.0(Penetrate)
G01 X219.850000 Y472.767000 Z-0.125000 F400.000000
G00 Z5.000000

(End cutting path id: path192)


(Start cutting path id: path214)
(Change tool to Default tool)

G00 Z5.000000
G00 X943.750000 Y394.012000

G01 Z-0.125000 F100.0(Penetrate)
G01 X842.150000 Y394.012000 Z-0.125000 F400.000000
G00 Z5.000000

(End cutting path id: path214)


(Start cutting path id: path214)
(Change tool to Default tool)

G00 Z5.000000
G00 X943.750000 Y394.012000

G01 Z-0.125000 F100.0(Penetrate)
G01 X842.150000 Y394.012000 Z-0.125000 F400.000000
G00 Z5.000000

(End cutting path id: path214)


(Footer)
M5
G00 X0.0000 Y0.0000
M2
(Using default footer. To add your own footer create file "footer" in the output dir.)
(end)
%