%
(Header)
(Generated by gcodetools from Inkscape.)
(Using default header. To add your own header create file "header" in the output dir.)
M3
(Header end.)
G21 (All units in mm)

(Start cutting path id: path82)
(Change tool to Default tool)

G00 Z5.000000
G00 X20.146954 Y3.666770

G01 Z-0.125000 F100.0(Penetrate)
G01 X40.143124 Y8.067750 Z-0.125000 F400.000000
G01 X66.117424 Y12.957540 Z-0.125000
G01 X92.440850 Y16.078930 Z-0.125000
G01 X135.005650 Y17.746790 Z-0.125000
G01 X168.209330 Y16.878580 Z-0.125000
G01 X204.114830 Y14.004180 Z-0.125000
G01 X251.224160 Y9.033580 Z-0.125000
G01 X286.271590 Y5.327910 Z-0.125000
G01 X326.156130 Y1.911500 Z-0.125000
G01 X362.505910 Y0.154080 Z-0.125000
G01 X400.824380 Y0.773080 Z-0.125000
G01 X421.220730 Y2.257050 Z-0.125000
G01 X440.595640 Y4.340480 Z-0.125000
G01 X445.623680 Y4.925050 Z-0.125000
G01 X445.623680 Y299.691810 Z-0.125000
G01 X259.220670 Y299.691810 Z-0.125000
G01 X3.042454 Y4.220730 Z-0.125000
G01 X5.667664 Y1.762010 Z-0.125000
G01 X9.176494 Y1.138760 Z-0.125000
G01 X16.166924 Y2.709220 Z-0.125000
G01 X20.146954 Y3.666770 Z-0.125000
G00 Z5.000000

(End cutting path id: path82)


(Start cutting path id: path82)
(Change tool to Default tool)

G00 Z5.000000
G00 X20.146954 Y3.666770

G01 Z-0.125000 F100.0(Penetrate)
G01 X40.143124 Y8.067750 Z-0.125000 F400.000000
G01 X66.117424 Y12.957540 Z-0.125000
G01 X92.440850 Y16.078930 Z-0.125000
G01 X135.005650 Y17.746790 Z-0.125000
G01 X168.209330 Y16.878580 Z-0.125000
G01 X204.114830 Y14.004180 Z-0.125000
G01 X251.224160 Y9.033580 Z-0.125000
G01 X286.271590 Y5.327910 Z-0.125000
G01 X326.156130 Y1.911500 Z-0.125000
G01 X362.505910 Y0.154080 Z-0.125000
G01 X400.824380 Y0.773080 Z-0.125000
G01 X421.220730 Y2.257050 Z-0.125000
G01 X440.595640 Y4.340480 Z-0.125000
G01 X445.623680 Y4.925050 Z-0.125000
G01 X445.623680 Y299.691810 Z-0.125000
G01 X259.220670 Y299.691810 Z-0.125000
G01 X3.042454 Y4.220730 Z-0.125000
G01 X5.667664 Y1.762010 Z-0.125000
G01 X9.176494 Y1.138760 Z-0.125000
G01 X16.166924 Y2.709220 Z-0.125000
G01 X20.146954 Y3.666770 Z-0.125000
G00 Z5.000000

(End cutting path id: path82)


(Footer)
M5
G00 X0.0000 Y0.0000
M2
(Using default footer. To add your own footer create file "footer" in the output dir.)
(end)
%